X: 24905
T: Maho Snaps, The
R: jig
M: 6/8
K: Gmajor
|:D|"G"~G3 GBd|"G"gdB GAB|"C"cBc "G"EFG|"D"AFd cBA|
"G"~G3 GBd|"G"gdB GAB|"Am"cAF "D"DFA|"G"AGF G2:|
|:B|"G"d^cd ede|"C"fef gfe|"G"d2d "Em"efg|"D"fd^c d2A|
"G"dAA "C"eAA|"Bm"fAA "Em"gfe|"G"dfa "D"agf|"G"gdB G2:|

